X: 7053
T: Chloe's Passion
R: slip jig
M: 9/8
K: Bminor
|:Bef gaf gee|Bef gee fdd|Bef gaf gee|fdd agf gee:|
|:~B3 gfe gaa|~B3 gfe fdd|~B3 gfe gaa|fdd agf gee:|
|:~B3 GBB ~A3|~B3 GBe Beg|fde faf gee|fdd agf gee:|
g2 e edB e2 e|fdd dBA ~B3|g2 e edB ege|fdd agf gee|
g2 e edB ~e3|fdd dBA ~B3|g2 g fga geB|ABd fdA B3||

